resources/haticons/SVG/music_video.svg

<!-- Generated by IcoMoon.io -->
<svg version="1.1" xmlns="http://www.w3.org/2000/svg" width="24" height="24" viewBox="0 0 24 24">
<title>music_video</title>
<path d="M8.016 15q0-1.219 0.891-2.109t2.109-0.891q0.328 0 0.984 0.188v-6.188h5.016v2.016h-3v7.031q0 1.219-0.891 2.086t-2.109 0.867-2.109-0.891-0.891-2.109zM21 18.984v-13.969h-18v13.969h18zM21 3q0.797 0 1.406 0.609t0.609 1.406v13.969q0 0.797-0.609 1.406t-1.406 0.609h-18q-0.797 0-1.406-0.609t-0.609-1.406v-13.969q0-0.797 0.609-1.406t1.406-0.609h18z"></path>
</svg>

<svg xmlns="http://www.w3.org/2000/svg" width="24" height="24"><path d="M8.016 15q0-1.219.891-2.109T11.016 12q.328 0 .984.188V6h5.016v2.016h-3v7.031q0 1.219-.891 2.086T11.016 18t-2.109-.891T8.016 15zM21 18.984V5.015H3v13.969h18zM21 3q.797 0 1.406.609t.609 1.406v13.969q0 .797-.609 1.406T21 20.999H3q-.797 0-1.406-.609t-.609-1.406V5.015q0-.797.609-1.406T3 3h18z"/></svg>
